X:1
T:Io venni su dal Cielo
T:Giovanni Animuccia
T:Source : Primo libro delle Laude spirituali a tre voci---Roma---A.Gardano---1583. Editor : André Vierendeels (23/11/17) Notes : Original clefs : G2, G2, C3 Editorial accidentls above the staff
T:Io venni su dal Cielo
T:©
T:©
C:Giovanni Animuccia
Z:©
%%score [ 1 2 3 ]
L:1/8
Q:1/4=120
M:4/4
K:F
V:1 treble nm="Soprano 1" snm="S 1"
V:2 treble nm="Soprano 2" snm="S 2"
V:3 treble-8 nm="Tenor" snm="T"
V:1
"^1)" F4 A4- | A2 G2 A2 B2 | c4 c4 | c4 c4- | c2 B2 A2 A2 | G4 G4 :: z4 G4 | G6 F2 | G2 A2 G4 | %9
w: Io ven-|* ni su dal|Cie- lo|a met-|* ter fo- co'in|ter- ra,|per|di- le-|guar' il gie-|
w: Hor del|_ pa- ter- no|se- no,|u- scen-|* do ri- tro-|va- i,|u-|na stal-|la co'l fie-|
 G4 B4 | A4 G2 A2- | A2 A2 G4 | G4 d4- | d4 c4 | c2 c4 A2 | B8 | A4 c4 | d3 d d2 d2 | c4 c2 f2 | %19
w: lo ch'el|fred- do cor|_ ri- ser-|ra, hor|_ che|al- tro vo-|gl'i-|o che|fiam- ma di de-|si- o, che|
w: no, e|qui- vi l'a-|* tac- ca-|i, fu|_ la|not- te gran|ven-|to, pur|non ri- ma- se|spen- to, pur|
 e3 e d2 c2 | d8 | c8 :| %22
w: fiam- ma di de-|si-|o.|
w: non ri- ma- se|spen-|to.|
V:2
"^2)""^1)" A4 c4- | c2 c2 F2 F2 | G4 G4 | A4 A4- | A2 G2 E2 F2 | E4 E4 :: z4 E4 | E6 D2 | %8
w: Io ven-|* ni su dal|Cie- lo|a met-|* ter fo- co'in|ter- ra,|per|di- le-|
w: All s'a-|* pre- se ai,|cuo- ri.|Che dol-|* ce- men- te|gl'ar- se,|de|sim- pli-|
 E2 F2 E4 | E4 G4 | F4 G2 F2- | F2 F2 G4 | G4 B4- | B4 A4 | A2 A4 F2- | F2 ED E4 | F4 A4 | %17
w: guar' il gie-|lo ch'el|fred- do cor|_ ri- ser-|ra, hor|_ che|al- tro vo-|* * * gl'i-|o che|
w: ci pa- sto-|ri, e|d'o- gn'in- tor-|* no spar-|se, per|_ le|pro- pin- que|_ _ _ vil-|le, cal-|
 B3 B B2 B2 | A4 A2 d2 | c3 c =B2 c2- | c2 =BA B4 | c8 :| %22
w: fiam- ma di de-|si- o, che|fiam- ma di de-|* * * si-|o.|
w: dis- si- me sci-|mil- le, cal-|dis- si- me sci-|* * * mil-|le.|
V:3
"^1)""^4)""^3)" F4 f4- | f2 e2 d2 d2 | c4 c4 | F4 F4- | F2 G2 A2 F2 | c4 c4 :: z4 c4 | c6 d2 | %8
w: Io ven-|* ni su dal|Cie- lo|a met-|* ter fo- co'in|ter- ra,|per|di- le-|
w: Si gran|_ tem- po'il tenn'|i- o,|ta- cen-|* do'in me ri-|stret- to,|e|spes- so|
 c2 F2 c4 | c4 G4 | d4 _e2 d2- | d2 d2 G4 | G4 B4- | B4 f4 | f2 f4 F2 | G8 | F4 f4 | B3 B B2 B2 | %18
w: guar' il gie-|lo ch'el|fred- do cor|_ ri- ser-|ra, hor|_ che|al- tro vo-|gl'i-|o che|fiam- ma di de-|
w: mi sen- ti-|o, strug-|ge- re'il cuor|_ nel pet-|to, di-|* con-|do'in tan- ta|no-|ia, quan-|do sa- ra, ch'io|
 f4 f2 B2 | c3 c g2 a2 | g8 | c8 :| %22
w: si- o, che|fiam- ma di de-|si-|o.|
w: mo- ia, quan-|do sa- ra, ch'io|mo-|ia.|

